src/view/img/svg/tile_percent.svg

<?xml version="1.0" encoding="UTF-8" standalone="no"?>
<svg
   width="60"
   height="54"
   version="1.1"
   viewBox="0 0 16 14"
   id="svg1827"
   sodipodi:docname="tile_percent.svg"
   inkscape:version="1.2.1 (9c6d41e410, 2022-07-14)"
   xmlns:inkscape="http://www.inkscape.org/namespaces/inkscape"
   xmlns:sodipodi="http://sodipodi.sourceforge.net/DTD/sodipodi-0.dtd"
   xmlns="http://www.w3.org/2000/svg"
   xmlns:svg="http://www.w3.org/2000/svg">
  <defs
     id="defs1831" />
  <sodipodi:namedview
     id="namedview1829"
     pagecolor="#ffffff"
     bordercolor="#000000"
     borderopacity="0.25"
     inkscape:showpageshadow="2"
     inkscape:pageopacity="0.0"
     inkscape:pagecheckerboard="0"
     inkscape:deskcolor="#d1d1d1"
     showgrid="false"
     inkscape:zoom="4"
     inkscape:cx="-32.75"
     inkscape:cy="34.5"
     inkscape:window-width="1920"
     inkscape:window-height="1017"
     inkscape:window-x="-8"
     inkscape:window-y="-8"
     inkscape:window-maximized="1"
     inkscape:current-layer="svg1827" />
  <path
     id="path1819-9"
     style="fill:#000000;stroke-width:0.225683;stroke:none"
     d="M 5.537969,1.9955683 C 5.2974974,1.9994635 5.0702466,2.0368918 4.859844,2.1044225 4.5793323,2.1944424 4.3381935,2.3305087 4.1265107,2.5283808 3.9148269,2.7262528 3.7508166,2.9700967 3.6171357,3.2679642 3.4840728,3.5573001 3.4064513,3.902401 3.3775524,4.2851517 c -0.02632,0.3487248 -0.00748,0.6668072 0.073438,0.9552083 0.07172,0.2962416 0.197562,0.5536124 0.3692708,0.771875 0.1632058,0.2176205 0.3729124,0.3875856 0.6276042,0.5265625 0.2553117,0.1304688 0.5486713,0.2125784 0.871875,0.2369792 0.3317126,0.025043 0.6344462,-0.020755 0.915625,-0.1192709 0.2811557,-0.098524 0.5239075,-0.2514853 0.7270833,-0.45 C 7.165624,6.0079911 7.3380135,5.7645629 7.4619274,5.4830683 7.5949642,5.1937302 7.6616401,4.8740032 7.687969,4.5252558 7.715579,4.1595179 7.6987615,3.8157696 7.6270315,3.5195267 7.5467996,3.2226421 7.42942,2.9656193 7.2655732,2.7565058 7.1023694,2.5388853 6.8934249,2.3607618 6.6374482,2.2387975 6.3906444,2.1089489 6.1059654,2.0277822 5.7827607,2.0033808 5.6998328,1.9971211 5.6181263,1.99427 5.537969,1.9955683 Z m 5.308854,0.4661459 -6.4895831,9.0156248 0.7703125,0.05781 6.4812496,-9.0161462 z M 5.578594,2.6169225 c 0.040436,4.58e-5 0.081455,0.00156 0.1229167,0.00469 C 6.1353013,2.654362 6.4644193,2.8332311 6.687969,3.1580683 6.9206478,3.4750165 7.0075545,3.9090506 6.9645315,4.4789017 6.9439816,4.7510898 6.8996166,4.9961243 6.8233857,5.2127558 6.7392958,5.4202609 6.6307487,5.608354 6.4916149,5.7518183 6.360964,5.895923 6.206859,6.0130724 6.0218232,6.0846308 5.8459344,6.1483478 5.638956,6.1754053 5.4093232,6.1580683 4.9585147,6.1240341 4.6125635,5.9438208 4.3890107,5.6190058 4.1576169,5.285044 4.0619762,4.8498179 4.1030732,4.3054642 4.1242632,4.0247926 4.1771815,3.7808493 4.2619274,3.5648392 4.3466773,3.3488507 4.4634175,3.1609079 4.6025524,3.0174433 4.7332042,2.8733159 4.8944242,2.7743197 5.087969,2.7033808 5.2383131,2.6452425 5.403371,2.616724 5.578594,2.6169225 Z m 4.942187,4.6 c -0.256428,-0.00136 -0.500068,0.03676 -0.7348948,0.109375 -0.280514,0.090016 -0.522172,0.234419 -0.7338547,0.4322917 C 8.8403477,7.9564616 8.6762372,8.2005028 8.5431774,8.4898392 8.4180025,8.788326 8.3330128,9.1242761 8.3041149,9.5070267 c -0.02632,0.3487253 0.00118,0.6672993 0.072917,0.9635413 0.08023,0.296907 0.2065879,0.545922 0.3697917,0.763542 0.1717118,0.218264 0.3812672,0.388107 0.635938,0.527083 0.255331,0.130497 0.539793,0.211538 0.8630194,0.235938 0.331707,0.02508 0.633924,-0.01188 0.915105,-0.110417 0.281154,-0.09852 0.523906,-0.251484 0.727083,-0.45 0.203174,-0.198515 0.375588,-0.44194 0.499479,-0.723437 0.124555,-0.289975 0.208568,-0.608567 0.234896,-0.957292 0.02825,-0.3742441 0.0024,-0.709811 -0.06875,-1.0145833 C 12.48188,8.4451609 12.35586,8.1876679 12.192656,7.9700475 12.020945,7.7518073 11.811357,7.5816463 11.564531,7.4518183 11.317082,7.3304985 11.023675,7.2486155 10.700469,7.2242142 c -0.0606,-0.00458 -0.120512,-0.00698 -0.179688,-0.00729 z m -0.05364,0.6380208 c 0.05456,-4.25e-4 0.110815,0.00139 0.168229,0.00573 0.43379,0.03275 0.76313,0.203362 0.995833,0.5203125 0.224171,0.3163066 0.311251,0.7504386 0.268229,1.3203125 -0.02119,0.2806705 -0.06577,0.5256547 -0.150521,0.7416667 -0.08474,0.215989 -0.192112,0.395576 -0.33125,0.539063 -0.131292,0.152613 -0.292739,0.251735 -0.469271,0.323958 -0.184393,0.06304 -0.392392,0.09899 -0.613541,0.08229 -0.229639,-0.0173 -0.4220778,-0.0749 -0.5942708,-0.173438 -0.16432,-0.0894 -0.308341,-0.219715 -0.425,-0.373958 C 9.2080587,10.678794 9.1278516,10.492663 9.0765157,10.266401 9.0245157,10.048621 9.0085697,9.8078598 9.0291197,9.5356713 9.0503097,9.2549994 9.1027067,9.0110346 9.187453,8.7950463 9.272823,8.5705272 9.388943,8.3911146 9.528078,8.2476505 9.667213,8.1041861 9.82898,8.0051463 10.014016,7.933588 10.152794,7.879902 10.303452,7.856217 10.467141,7.854942 Z" />
</svg>

<svg width="60" height="54" version="1.1" viewBox="0 0 16 14" xmlns="http://www.w3.org/2000/svg">
 <path d="m5.54 2c-.24.0039-.468.0413-.678.109-.281.09-.522.226-.733.424-.212.198-.376.442-.509.74-.133.289-.211.634-.24 1.02-.0263.349-.00748.667.0734.955.0717.296.198.554.369.772.163.218.373.388.628.527.255.13.549.213.872.237.332.025.634-.0208.916-.119.281-.0985.524-.251.727-.45.203-.199.376-.442.499-.723.133-.289.2-.609.226-.958.0276-.366.0108-.709-.0609-1.01-.0802-.297-.198-.554-.361-.763-.163-.218-.372-.396-.628-.518-.247-.13-.531-.211-.855-.235-.0829-.00626-.165-.00911-.245-.00781zm5.31.466-6.49 9.02.77.0578 6.48-9.02-.762-.0573zm-5.27.155c.0404 4.58e-5.0815.00156.123.00469.434.0327.763.212.986.536.233.317.32.751.277 1.32-.0205.272-.0649.517-.141.734-.0841.208-.193.396-.332.539-.131.144-.285.261-.47.333-.176.0637-.383.0908-.612.0734-.451-.034-.797-.214-1.02-.539-.231-.334-.327-.769-.286-1.31.0212-.281.0741-.525.159-.741.0847-.216.201-.404.341-.547.131-.144.292-.243.485-.314.15-.0581.315-.0867.491-.0865zm4.94 4.6c-.256-.00136-.5.0368-.735.109-.281.09-.522.234-.734.432-.212.198-.376.442-.509.731-.125.298-.21.634-.239 1.02-.0263.349.00118.667.0729.964.0802.297.207.546.37.764.172.218.381.388.636.527.255.13.54.212.863.236.332.0251.634-.0119.915-.11.281-.0985.524-.251.727-.45.203-.199.376-.442.499-.723.125-.29.209-.609.235-.957.0282-.374.0024-.71-.0688-1.01-.0717-.296-.198-.554-.361-.771-.172-.218-.381-.388-.628-.518-.247-.121-.541-.203-.864-.228-.0606-.00458-.121-.00698-.18-.00729zm-.0536.638c.0546-.000425.111.00139.168.00573.434.0327.763.203.996.52.224.316.311.75.268 1.32-.0212.281-.0658.526-.151.742-.0847.216-.192.396-.331.539-.131.153-.293.252-.469.324-.184.063-.392.099-.614.0823-.23-.0173-.422-.0749-.594-.173-.164-.0894-.308-.22-.425-.374-.108-.162-.188-.348-.239-.574-.052-.218-.0679-.459-.0474-.731.0212-.281.0736-.525.158-.741.0854-.225.201-.404.341-.547.139-.143.301-.243.486-.314.139-.0537.289-.0774.453-.0786z"/>
</svg>
